X:1
T:By the offense of one
T:Hezekiah Moors, 1809
T:Transcribed from Province Harmony, 1809.
T:Anthem from Romans Chapter 5
%%score [ 1 2 3 ]
L:1/8
Q:1/4=130
M:2/2
K:F
V:1 treble nm="Tr." snm="Tr."
V:2 treble-8 nm="T." snm="T."
V:3 bass nm="B." snm="B."
V:1
 A4 A2 A2 | A4 ^c4 | d6 z2 | f4 e4 | d4 (c2 B2) | A4 d4 | (d ^c3) z2 d2 | F4 E4 | D4 D2 z2 | %9
w: |||||||||
 c4 c4 | c6 z2 | e4 e4 | !fermata!e4 f2 e2 | d4 G4 | c4 (e2 g2) | !fermata!f4 z2 A2 | B4 G4 | %17
w: ||||||||
 c4 (d2 f2) | B4 A4 | (A !fermata!G3) F3 G ||[M:3/2] A4 c4 [Ff]4 | B4 A4 (G3 F) | F12 || %23
w: ||||||
[M:2/2] z4 F4 | A4 G4 | c4 E4 | (F2 A2) ^G4 | A4 A2 z2 | F4 G2 F2 | (F2 E6) | D4 D2 z2 | c8 | %32
w: For|as by|one man's|dis- * o-|be- dience,|||||
 c4 d2 e2 | f4 e2 e2 | !fermata!f4 z2 c2 | (d2 c2) B2 A2 | G8 | F4 F4 |] %38
w: ||||||
V:2
 d4 d2 d2 | d4 ^c4 | A6 z2 | A4 A4 | A4 G4 | F4 (B2 A2) | A4 z2 B2 | A4 d4 | d4 d2 z2 | A4 A4 | %10
w: By the of-|fense of|one,|judg- ment|came up-|on all *|men, to|con- dem-|na- tion,|ev- en|
 A6 z2 | G4 G4 | !fermata!G4 A2 A2 | F4 B4 | A4 G4 | !fermata!A4 z2 A2 | G4 B4 | A4 F4 | D4 F4 | %19
w: so,|ev- en|so, by the|right- eous-|ness of|one. the|free gift|came up-|on all|
 (F !fermata!E3) A3 G ||[M:3/2] F4 A4 A4 | d4 c4 c4 | c12 ||[M:2/2] z8 | z8 | z8 | z8 | z8 | %28
w: men, * un- to|jus- ti- fi-|ca- tion of|life.||||||
 f4 e2 d2 | (d2 ^c6) | d4 d2 z2 | A8 | A4 B2 G2 | A4 G2 G2 | !fermata!A4 z2 A2 | (B2 A2) G2 [Fd]2 | %36
w: ma- ny were|made *|sin- ners,|So|by the o-|be- dience of|one, shall|ma- * ny be|
 (c4 B4) | A4 A4 |] %38
w: made *|right- eous.|
V:3
 D,4 D,2 D,2 | D,4 A,,4 | D,6 z2 | D,4 A,4 | D,4 E,4 | F,4 D,4 | A,,4 z2 G,,2 | A,,4 A,,4 | %8
w: ||||||||
 D,4 D,2 z2 | F,4 F,4 | F,6 z2 | C,4 C,4 | !fermata!C,4 A,,2 A,,2 | D,4 E,4 | F,4 C,4 | %15
w: |||||||
 !fermata!F,4 z2 F,2 | G,4 E,4 | F,4 D,4 | B,,4 F,4 | !fermata!C,4 D,3 E, ||[M:3/2] F,4 F,4 D,4 | %21
w: ||||||
 B,,4 C,4 C,4 | F,,12 ||[M:2/2] z4 D,4 | D,4 E,4 | F,4 C,4 | D,4 E,4 | A,,4 A,,2 z2 | %28
w: ||For|as by|one man's|dis- o-|be- dience,|
 D,4 ^C,2 D,2 | %29
w: |
"_________________________________________________________\nEdited by B. C. Johnston, 2018\nGrace notes converted to normal notes in measures 7, 20, and 30." A,,8 | %30
w: |
 D,4 D,2 z2 | F,8 | F,4 B,2 C2 | F,4 C,2 C,2 | !fermata!F,4 z2 F,2 | F,4 B,,2 B,,2 | C,8 | %37
w: |||||||
 F,,4 F,,4 |] %38
w: |

